X: 24
T:VALSE NEUVE
M:3/4
L:1/8
Q:1/4=120
C:Yves BELOTTEAU
K:C
|:DE|FD3/2B,/2|A,DF|EC3/2A,/2|E,B,A,|B,3|B,CD|C2D|E
DE|FD3/2B,/2|A,DF|EC3/2A,/2|E,B,A,|B,3|B,CB,|A,CE|A:|!
|DE|FD3/2F/2|A2B|cAE|CB,A,|B,3|B,CD|C2D|EED|^C2D/2E/2|
FD3/2F/2|A2B|cAE|CB,A,|B,3|^G,CB,|A,CE|A3|
